X: 21523
T: La POSTE QUADRILLES No. 3.--la Poule.
%R: jig
B: W. Hamilton "Universal Tune-Book" Vol. 2 Glasgow 1846 p.152 #3 (and p.153 #1)
S: http://s3-eu-west-1.amazonaws.com/itma.dl.printmaterial/book_pdfs/hamiltonvol2web.pdf
Z: 2016 John Chambers <jc:trillian.mit.edu>
M: 6/8
L: 1/8
K: C
% - - - - - - - - - - - - - - - - - - - - - - - - -
!segno![|\
G3- G^FA | G3- G^FA | GGG Gcd | (e3 c)zz |\
A3- A^GB | A3- A^GB | (Bc/B/^A/B/) dcB | cGe cz H|]
!ff!E |\
EEE E^F^G | AAA ABc | ddd de^f | g3- g^fg |\
b2a- age | e2d- d^cd | ^f2e- eca | gGG GGG !segno! |]
!p!d |\
dzg dzg | dzg bzg | ^gza gza | c'ba g^fe |\
dzg dzg | dzg bzg | ^gza gza | c'e^f g2z !segno!|]
% - - - - - - - - - - - - - - - - - - - - - - - - -

% (Continued from previous page)

%%sep 1 1 500
%%sep 1 1 500

